X:1
T:Title
%%score [ ( 1 2 ) ( 3 4 ) ( 5 6 ) ( 7 8 ) ]
L:1/8
Q:1/4=60
M:4/4
K:C
V:1 treble nm="S."
V:2 treble 
V:3 treble nm="A."
V:4 treble 
V:5 treble-8 nm="T."
V:6 treble-8 
V:7 bass nm="B."
V:8 bass 
V:1
 z4 | z8 | z8 |[M:4/4] z8 | z8 | z8 ||[K:Ab][M:4/4][K:treble]"^S." z8 | z8 | %8
w: ||||||||
 z!ppp!"^legato ed express."!<(! A c[ce]!<)!!>(! [cf]3 [ce]!>)! | cA AB [Ac]3 [Gd] | %10
w: There is sweet mu- sic|here that soft- er falls Than|
!<(! [Ac]B A!<)![Ac]- (3[Ac]B!>(!A GB!>)! |[M:2/4]!<(! A2-"^______"!p! (A z)!<)! | %12
w: pe- tals from blown * ro- ses on the|grass; *|
[M:5/4]"^____"!<(! (A2 G)!<)![EB]!mf!"^ten."[Gd][Ac] B[Ac]!>(!!tenuto![Ad]A!>)! | %13
w: Mu- sic that gent- lier on the spi- rit|
!p!"^dim." G4- G2 G z z2 |[M:5/4] z!ppp! A A3 e- eA/A/!<(! AA!<)! |!>(! _c4- c2 c!>)! z z2 | %16
w: lies, * *|Than tir'd eye * lids up- on tir'd|eyes; * *|
 z!pp! (A A3 A A)[Ac]([ce][Ac]) | %17
w: That gent- lier lies, Than tir'd *|
[M:10/4]!>(! (c4 e3)!>)! c!<(! c2 (c!<)!A)"^____________________________""^dim." e8- | %18
w: eye- lids up- on tir'd * eyes;|
[M:5/4]"^____" e!<(! !courtesy!_d2 c2!<)! G BAcA- |[M:4/4]!mf! A z z A- A3 D | %20
w: * Mu- sic that brings sweet sleep, *|* Mu * sic|
[M:4/4] z!p!!<(! __B d!<)!_G!>(! A[GB] [FA]!>)!G | [_G_c]7/2 G/ G4 | z!mf! [B_f]2 d (_cd) cB | %23
w: that brings sweet sleep down from the|bliss- ful skies.|Here are cool * moss- es|
"^dim." (e4 B4) | z!<(! [Ac] [ce]A!<)! B!>(!c BA!>)! |!>(! A7/2!ppp! G/!>)! G4 | %26
w: deep, *|And in the stream the long- leaved|flow- ers weep,|
 z!p! [Ac] [ce]A Bc cB | B"^poco rit." c2!>(! (B- B _c2) c!>)! | %28
w: And from the crag- gy ledge the|pop- py hangs * * in|
!pp!"^a tempo"!<(! _c4-!>(! c2!<)! c!>)! z | z!pp! A2 A- A!<(![Ac]!>(! [Ae]!<)!A!>)! | %30
w: sleep. * *|Mu- sic * that brings sweet|
[M:5/4]!ppp! _c8- c z |[M:5/4] z2 A2- A A2!<(! !courtesy!=c!>(![Ae]!<)![EA]!>)! | %32
w: sleep. *|down * from the bliss- ful|
[M:4/4]"^___________________________________________________" [_C_c]8- |!>(! [Cc]8 | [_C_c]8!>)! | %35
w: skies.|||
[M:4/4]"^____"!>(! [_C_c]2 z2!>)! z4 | z4 z!ppp! A!<(! c[ce] | f3!<)!!>(! e (e!>)!c) (AB) | %38
w: |And in the|stream the long * leaved *|
 [Ac]3 [Gd]"^dim.""^_______" [Ac]4- |"^____" [Ac]!<(!A A!<)!"^poco"[Ac]!>(! [cf]3 [ce]!>)! | %40
w: flow- ers weep,|* And from the crag- gy|
 [ce]!<(![Ac] AB!<)!!>(! !tenuto![Ac]3 [Gd]!>)! |"^dim." (c4 e4) | %42
w: ledge the pop- py hangs in|sleep, *|
"^_____" (c2!<(! !tenuto!A)[Ac]!<)!"^dim." [Ge]4- |!>(! [Ge]6"^rit. e dim."!pp! !tenuto![Ae]2!>)! | %44
w: * hangs in sleep,|* sleep,|
 z2 !tenuto![Ac]2 z2 !tenuto!A2 | z4!ppp! !tenuto!E4 | !fermata!z8 |] %47
w: sleep, sleep,|sleep.||
V:2
 x4 | x8 | x8 |[M:4/4] x8 | x8 | x8 ||[K:Ab][M:4/4][K:treble] x8 | x8 | x8 | x8 | x8 | %11
w: |||||||||||
[M:2/4] A2 e2 |[M:5/4] e2 GB x6 | x10 |[M:5/4] x10 | x10 | x10 |[M:10/4] x20 |[M:5/4] x10 | %19
w: * Mu|* \-sic *|||||||
[M:4/4] x8 |[M:4/4] x8 | x8 | x8 | x8 | x8 | x8 | x8 | x8 | x8 | x8 |[M:5/4] x10 |[M:5/4] x10 | %32
w: |||||||||||||
[M:4/4] x8 | x8 | x8 |[M:4/4] x8 | x8 | x8 | x8 | x8 | x8 | x8 | x8 | x8 | x8 | x8 | x8 |] %47
w: |||||||||||||||
V:3
 z4 | z8 | z8 |[M:4/4] z8 | z8 | z8 ||[K:Ab][M:4/4][K:treble]"^A." z8 | z8 | %8
w: ||||||||
 z!ppp!"^legato ed. express."!<(! [CE] [EA]!<)!A!>(! A3 A!>)! | AF F[DF] [B,F]3 [EG] | %10
w: There is sweet mu- sic|here that soft- er falls Than|
!<(! A[DE] [CE]!<)![A,E]- (3[A,E][DF]!>(![DF] E[DE]!>)! |[M:2/4] [CE]2- [CE] z | %12
w: pe- tals from blown * ro- ses on the|grass; *|
[M:5/4]!p!!<(! [CE]2 [B,E]!mf![G,E]!<)!"^ten."[A,E][A,E] [DF][CF]!>(!!tenuto![B,F][=B,F]!>)! | %13
w: Mu- sic that gent- lier on the spi- rit|
!p! C2 z2 z2 z4 |[M:5/4] z10 | z10 | z!pp! ([A,A] [A,A]3 [A,A] [A,A])E(=EF) | %17
w: lies,|||That gent- lier lies; Than tir'd *|
[M:10/4]!>(! (A4 [EG]3)!>)! [EG]!<(! [EA]2 ([=EA]!<)!F)"^dim." [_EG]4- [EG]2 [EG] z | %18
w: eye- lids up- on tir'd * eyes; * *|
[M:5/4]!<(! [EB]2 [EA]3!<)! [C=E] (EF) [C_G]2 |[M:4/4]!mf! [DF]2 z2 z4 | %20
w: Mu- sic that ~brings * sweet|sleep,|
[M:4/4] z!p!!<(! [D_G] [G__B][__B,D]!<)!!>(! [_C__E][DG] [CD]!>)![B,E] | [_C__E]7/2 _G/ G4 | %22
w: that brings sweet sleep down from the|bliss- ful skies.|
 z [D_G]2 [=EG] (=GE) EG | [GB][EG] [GB]E FG FE | E3 [CE]!<(! [CE]>[EA]!<)!!>(! [EA][CE]!>)! | %25
w: Here are cool * moss- es|deep, And thro' the moss the i- vies|creep, And in the stream the|
!>(! A7/2!ppp! G/!>)! G4 | z!p! [EA] [Ac][CE] [DF][EG] [EG][DF] | %27
w: flow- ers weep,|And from the crag- gy ledge the|
 [DF] [EG]2!>(! [_FA]- [FA]3 [FA]!>)! |!pp! [_FA]2 z2 z4 | %29
w: pop- py hangs * in|sleep.|
 z!pp! A2 A- A!<(![EA]!>(! [CE]!<)!A!>)! |[M:5/4]!ppp! _c8- c z | %31
w: Mu- sic * that brings sweet|sleep. *|
[M:5/4] z2 A2- A A2!<(! [EA]!>(![CE]!<)![EA]!>)! | %32
w: down * from the bliss- ful|
[M:4/4]"^___________________________________________________" [_C_c]8- |!>(! [Cc]8 | [_C_c]8!>)! | %35
w: skies.|||
[M:4/4]"^____"!>(! [C_c]2 z2!>)! z4 |!ppp! z4 z [CE]!<(! [EA][Ac] | [Ac]3!<)! [Ac]- [Ac] A2 F | %38
w: |And in the|stream the * long- leaved|
 [B,F]3 E"^dim.""^_______" A4- |"^____" A!<(!E =E!<)!F"^poco"!>(! A3 A!>)! | %40
w: flow- ers weep,|* And from the crag- gy|
 A!<(!E F[DF]!<)!!>(! [B,_F]3 E!>)! |"^dim." ((A4 [EG]4)) | %42
w: ledge the pop- py hangs in|sleep, *|
"^_____" (([EA]2!<(! !tenuto!=E))F!<)!"^dim." _E4- |!>(! E6!pp! !tenuto![Ec]2!>)! | %44
w: * hangs in sleep,|* sleep,|
 z2 !tenuto![CE]2 z2 !tenuto![CE]2 | z4!ppp! [A,C]4 | !fermata!z8 |] %47
w: sleep, sleep,|sleep.||
V:4
 x4 | x8 | x8 |[M:4/4] x8 | x8 | x8 ||[K:Ab][M:4/4][K:treble] x8 | x8 | x8 | x8 | x8 |[M:2/4] x4 | %12
[M:5/4] x10 | x10 |[M:5/4] x10 | x10 | x10 |[M:10/4] x20 |[M:5/4] x2 x2 x2 C2 x2 |[M:4/4] x8 | %20
[M:4/4] x8 | x8 | x2!mf! x2 (=EG) GE | x8 | x8 | x8 | x8 | x8 | x8 | x8 |[M:5/4] x10 |[M:5/4] x10 | %32
[M:4/4] x8 | x8 | x8 |[M:4/4] x8 | x8 | x2!>(! x2 x!>)! (EF)D | x8 | x8 | x8 | x8 | x8 | x8 | x8 | %45
 x8 | x8 |] %47
V:5
[K:G] z!ppp!"^Andante""^Alfred, Lord Tennyson"!<(! G2 B!<)! | %1
w: There is|
!>(! e3 d-"^There is sweet music" d!>)!B GA | [GB]3 [Fc] [GB]"^Edward Elgar"A G"^___"B- | %3
w: sweet mus * sic here that|soft- er falls Than pet- als|
 (3B!pp!"^___"AG FA- A [Gd]2 [FA] | [GB]3 B e2 dB | !tenuto!B2 GA- A!<(![GB] (Bc)!<)! || %6
w: * from blown ro- ses * on the|grass, Or night dews on|still wa- ters * be- * *|
"^T." [GB]3 [DA]!>(! [DG]B BA-!>)! | %7
w: walls Of shad- owy gran- ite,|
 (3AAG F[FA]"^molto dim.""^_______________________________\n" G4- | G8 |!ppp!"^______" G2 z2 z4 | %10
w: * in a gleam- ing pass;|||
 z8 |[M:2/4] z4 |[M:5/4][K:treble-8] x10 |!pp!!<(! g3 =f-!<)!f x5 | %14
w: |||Mu- sic *|
[M:5/4][K:treble-8] B3 c"^dim." c3 z z2 | z!pp! [e^g]2 [^df]2 e"^ten." !courtesy!^de!>(!^cF!>)! | %16
w: spi- rit lies,|Mu- sic that gent- lier on the|
 B3 !courtesy!=c c4- c z | %17
w: spi- rit lies, *|
[M:10/4][K:treble-8] z8"^unis." z4 z!p!!<(! (G!>(!d!<)!c)!>)!"^dim." G4- | %18
w: up- on tir'd eyes;|
[M:5/4][K:treble-8]"^___" G!<(! [_E_e]2 [Ee]2!<)! [Cc] [Cc]2 _A2 | %19
w: * Mu- sic that brings sweet|
[M:4/4]"^(   )"!mf!{_A} ^G!p!!<(![^c^e]"^cantabile" [e^g][Gc]!<)!!>(! [^A^d][^Be]!>)! [Ad][Gc] | %20
w: sleep, that brings sweet sleep down from the|
[M:4/4][K:treble-8] [Af]7/2 ^c/ c4 | z!<(! [Bd] [df][FB]!<)! [^A^c][Bd] [Ac][FB] | %22
w: bliss- ful skies,|that brings sweet sleep down from the|
 [^Ae]3!>(! [EA] [EA]3!>)! [EA] |"^(   )"{^A} [_E_B]3 [GB]- [GB][B_e] (BG) | [_Ac]3 _E E3 z | %25
w: bliss- ful, bliss- ful|skies. Here * are cool *|moss- es deep,|
 z!pp! .[GB] .[Bd][DG] ([EA][GB] [EA][DG]) |!>(! [Cc]7/2 G/!>)! G4 | z8 | %28
w: And in the stream the long- leaved|flow- ers weep,||
 z!pp! [e^g] [^df]!<(!e d!<)!e!>(! !tenuto!^cF!>)! | .B>.c c4- c z | %30
w: and in the stream the long- leaved|flow- ers weep, *|
[M:5/4] z .[e^g]!<(!.[eg].[^df][df]e!<)!!>(! de^cF!>)! |[M:5/4][K:treble-8] B3 c c4 z2 | %32
w: And from the crag- gy ledge the pop- py|hangs in sleep.|
[M:4/4] z4 z!p!!<(! G2 B!<)! |!mf! e3 d- dB GA |!>(! [GB]3 [Fc] [GB]!>)!A G!p!"^__"B- | %35
w: There is|sweet mu * sic here that|soft- er falls Than pet- als|
[M:4/4][K:treble-8]"^___" (3BAG!<(! FA- A!<)!!>(! [Gd]2 [FA]!>)! |"^dim. molto" G8- | G4 G z z2 | %38
w: * from blown ro- ses * on the|grass.||
 z4 z!ppp!!<(! (c!>(! g!<)!=f)!>)! | c4- c2 z2 | z8 |"^div." z!pp!!<(! (c g!<)!!>(!=f c2)!>)! z2 | %42
w: And in the|stream *||And from the crag|
 z8 | z8 |!pp! !tenuto![GB]2 z2 !tenuto![Bd]2 z2 |!ppp! [GB]4 z4 | !fermata![GB]8 |] %47
w: ||sleep, sleep,|sleep,|sleep.|
V:6
[K:G] x4 | x8 | x8 | x8 | x8 | x4 x2 F2 || x8 | x8 | x8 | x8 | x8 |[M:2/4] x4 | %12
w: |||||tween|||||||
[M:5/4][K:treble-8] z10 | c2 B2- B[ce] d[de]!>(![c=f]c!>)! |[M:5/4][K:treble-8] x10 | x10 | x10 | %17
w: |Mu- sic * that gent- lier on the||||
[M:10/4][K:treble-8] z"^div."!p!!<(! c!>(!(g!<)!=f)!>)!cc z2 x12 |[M:5/4][K:treble-8] x10 | %19
w: Than tir'd * eye- lids||
[M:4/4] x8 |[M:4/4][K:treble-8] x8 | x8 | x8 | x2 x2 x2 (G=B) | x8 | x8 | x8 | x8 | x8 | x8 | %30
w: |||||||||||
[M:5/4] x10 |[M:5/4][K:treble-8] x10 |[M:4/4] x8 | x8 | x8 |[M:4/4][K:treble-8] x8 | x8 | x8 | x8 | %39
w: |||||||||
 x8 | x8 | z8 | z4 z!pp!!<(! (G!>(! d!<)!c)!>)! | G>G G2 z4 | x8 | x8 | x8 |] %47
w: |||the pop- py|hangs in sleep,||||
V:7
[K:G] z!ppp!!<(! G,2 G,!<)! |!>(! [G,B,]3 [F,B,]- [F,B,]!>)![D,F,] [E,G,][C,E,] | %2
w: There is|sweet mus * sic here that|
 [A,,E,]3 D, [G,,D,][C,D,] [B,,D,]"^___"[B,,^D,]- | %3
w: soft- er falls Than pet- als|
"^___" (3[B,,D,]!pp![C,E,][C,E,] =D,[C,E,]- [C,E,] [B,,D,]2 D, | [G,,D,]3 G, [G,B,]2 [F,B,][D,F,] | %5
w: * from blown ro- ses * on the|grass, Or night dews on|
 !tenuto![D,F,]2 E,[C,E,]- [C,E,]!<(![A,,E,] D,2!<)! || %6
w: still wa- ters * be- tween|
"^B." [^C,E,]3 [=C,F,]!>(! [B,,G,][B,,^D,] [B,,D,][C,E,]-!>)! | %7
w: walls Of shad- owy gran- ite,|
 (3[C,E,][C,E,][C,E,] D,D,"^molto dim.""^_______________________________" G,,4- | G,,8 | %9
w: * in a gleam- ing pass;||
!ppp!"^_______""^This edition ? Andrew Sims 2004" G,,2 z2 z4 | z8 |[M:2/4] z4 |[M:5/4] z10 | %13
w: ||||
!pp!!<(! [E,G,]2 [D,G,]2-!<)! [D,G,][C,G,] [B,,G,][B,,G,]!>(![A,,A,][A,,A,]!>)! | %14
w: Mu- sic * that gent- lier on the|
[M:5/4] [E,^G,]3 [C,G,]"^dim." [C,G,]3 z z2 | %15
w: spi- rit lies,|
 z!pp! B,2 A,2 [^G,B,]"^ten." [F,A,][G,B,]!>(![^D,F,][D,F,]!>)! | %16
w: Mu- sic that gent- lier on the|
 [E,^G,]3 [C,G,] [C,G,]4- [C,G,] z | %17
w: spi- rit lies, *|
[M:10/4] z4 z!p!!<(! G,!>(!(D!<)!C)!>)!C!p!!<(! C3-!<)! C2 z2"^unis." z"^dim."!<(! G,,!>(!D,!<)!C,!>)! | %18
w: Than tir'd * eye- lids * * * *|
[M:5/4] G,,2!<(! x4!<)! x x3 | %19
w: |
[M:4/4]"^(   )"!mf!!mf!!>(!{_D,} ^C,!p!"^cantabile"!<(!^G, ^C^E,!>)!!<)!!>(! F,G,!>)! F,E, | %20
w: sleep, that brings sweet sleep down from the|
[M:4/4] F,7/2 ^C,/ C,4 |!<(! z!<(! F, B,!<)!=D, F,!<)!B, F,=D, | F,3!>(! ^C, C,3!>)! C, | %23
w: bliss- ful skies,|that brings sweet sleep down from the|bliss- ful, bliss- ful|
 ^C,4- C,C, C,>C, | !courtesy!=C,4- C,2 C, z | z!pp! .D, .G,B,, C,D, C,B,, | %26
w: ||And in the stream the long- leaved|
!>(! C,7/2 G,,/!>)! G,,4 | z8 | z!pp! B,!<(! A,[^G,B,] [F,A,]!<)![G,B,]!>(! [^D,F,][D,F,]!>)! | %29
w: flow- ers weep,||and in the stream the long- leaved|
 .[E,^G,]>.[C,G,] [C,G,]4- [C,=G,] z | %30
w: flow- ers weep, *|
[M:5/4] z .B,!<(!.B,.A,A,[G,B,]!<)!!>(! [F,A,][^G,B,][^D,F,][D,F,]!>)! | %31
w: And from the crag- gy ledge the pop- py|
[M:5/4] [E,^G,]3 [C,G,] [C,G,]4 z2 |[M:4/4] z4 z!p!!<(! G,,2 [G,,G,]!<)! | %33
w: hangs in sleep.|There is|
!mf! [G,B,]3 [F,B,]- [F,B,][D,F,] [E,G,][C,E,] | %34
w: sweet mu * sic here that|
!>(! [A,,E,]3 D, [G,,D,]!>)![C,D,] [B,,D,]!p!"^__"[B,,^D,]- | %35
w: soft- er falls Than pet- als|
[M:4/4]"^___" (3[B,,D,][C,E,][C,E,]!<(! =D,[C,E,]- [C,E,]!>(! [B,,D,]2 D,!<)!!>)! | %36
w: * from blown ro- ses * on the|
"^dim. molto" G,,8- | G,,4 G,, z z2 | z8 | z!pp!!<(! C, G,!<)!!>(!=F, C,4-!>)! | C,3 z z4 | %41
w: grass.|||the flow- ers weep,||
"^div." z4 z!<(! (G,!>(! D!<)!!pp!C)!>)! |!pp! C>C!>(! C4!>)! z2 | %43
w: And from the|crag- gy ledge|
"^unis." z!<(! G,,!>(! D,!<)!C,!>)! G,,3 G,, | x2 z2 x2 z2 | x4 z4 | x8 |] %47
w: ||||
V:8
[K:G] x4 | x8 | x8 | x8 | x8 | x8 || x8 | x8 | x8 | x8 | x8 |[M:2/4] x4 |[M:5/4] x10 | x10 | %14
w: ||||||||||||||
[M:5/4] x10 | x10 | x10 |[M:10/4] z8 z (C,!>(!G,=F,)!>)! C,4 z G,,D,C, | %18
w: |||up- on tir'd eyes, up- on tir'd|
[M:5/4] G,,2 [_A,,_A,]3 [G,,G,]- [G,,G,][=F,,=F,][F,,F,][_E,,_E,] | %19
w: eyes; Mu- sic * that brings sweet|
[M:4/4] _D,,7/2 [D,,_D,]/ [D,,D,]4 |[M:4/4] [_D,,_D,]4 [D,,D,]>[D,,D,] [D,,D,][D,,D,] | %21
w: sleep, that brings|sweet sleep, that brings sweet|
 [_D,,_D,]4 [D,,_D,][D,,D,]/[D,,D,]/ [D,,D,][D,,_D,] | %22
w: sleep down from the bliss- ful|
 [_D,,_D,]4 [D,,D,][D,,D,]/[D,,D,]/ [D,,D,][D,,D,] | [_D,,_D,]4- [D,,D,][D,,D,] [D,,D,]>[D,,D,] | %24
w: skies, down from the bliss- ful|skies, * the bliss- ful|
 !courtesy!=C,,4- C,,2 C,, x | z2 z B,, (C,D, C,B,,) | G,,8 | x8 | x8 | x8 |[M:5/4] x10 | %31
w: skies. * *|The long- leaved flow- ers|weep,|||||
[M:5/4] x10 |[M:4/4] x8 | x8 | x8 |[M:4/4] x8 | x8 | x8 | x8 | z (C, G,=F,) C,4 | x8 | z8 | %42
w: |||||||||||
 z!<(! (C, G,!<)!=F,) C,4 | z G,, D,C, G,,3 G,, | !tenuto![G,,D,]2 z2 !tenuto![D,G,]2 z2 | %45
w: the pop- py hangs,|the pop- py hangs in|sleep, sleep,|
 [G,,D,]4 z4 | [G,,D,]8 |] %47
w: sleep,|sleep.|

